X: 17
T:Róisín Dubh
M:3/4
L:1/8
Q:83     %Tempo
C:Traditional
K:D
A4 FA |D4 FA |e4 de |f3 e dB |
AF E4 |DE F2 (3EFE |D6 |(3def ||
g3 f ed |fe/d/ cA AB/A/ |FA e4 |de f4 |
e2 d4 |(3def |g3 f ed |fe/d/ cA BA |
FA e4 |de f3 e |d3/2B/ A2 FA |D2 FA e2 |
de f2 e2 |dB AF E2 |DE F2 (3EFE |D6 ||
%  ABC2Win Version 2.1 21/06/2002

